XXXXXXXXXXXXXXXXXXXXXXXXXXXXXXXXXXXXXXXXXXXXXXXXXXXXXXXXXXXXXXXXXXXXXXXXXXXXXXXXXXXXXXXXXXXXXXXX
XXXXXXXXXXXXXXXXXXXXXXXXXXXXXXXXXXXXXXXXXXXXXXXXXXXXXXXXXXXXXXXXXXXXXXXXXXXXXXXXXXXXXXXXXXXXXXXX
XXXXXXXXXXXXXXXXXXXXXXXXXXXXXXXXXXXXXXXXXXXXXXXXXXXXXXXXXXXXXXXXXXXXXXXXXXXXXXXXXXXXXXXXXXXXXXXX
XXXXXXXXXXXXXXXXXXXXXXXXXXXXXXXXXXXXXXXXXXXXXXXXXXXXXXXXXXXXXXXXXXXXXXXXXXXXXXXXXXXXXXXXXXXXXXXX
XXXXXXXXXXXXXXXXXXXXXXXXXXXXXXXXXXXXXXXXXXXXXXXXXXXXXXXXXXXXXXXXXXXXXXXXXXXXXXXXXXXXXXXXXXXXXXXX
XXXXXXXXXXXXXXXXXXXXXXXXXXXXXXXXXXXXXXXXXXXXXXXXXXXXXXXXXXXXXXXXXXXXXXXXXXXXXXXXXXXXXXXXXXXXXXXX
XXXXXXXXXXXXXXXXXXXXXXXXXXXXXXXXXXXXXXXXXXXXXXXXXXXXXXXXXXXXXXXXXXXXXXXXXXXXXXXXXXXXXXXXXXXXXXXX
XXXXXXXXXXXXXXXXXXXXXXXXXXXXXXXXXXXXXXXXXXXXXXXXXXXXXXXXXXXXXXXXXXXXXXXXXXXXXXXXXXXXXXXXXXXXXXXX
XXXXXXXXXXXXXXXXXXXXXXXXXXXXXXXXXXXXXXXXXXXXXXXXXXXXXXXXXXXXXXXXXXXXXXXXXXXXXXXXXXXXXXXXXXXXXXXX
XXXXXXXXXXXXXXXXXXXXXXXXXXXXXXXXXXXXXXXXXXXXXXXXXXXXXXXXXXXXXXXXXXXXXXXXXXXXXXXXXXXXXXXXXXXXXXXX
XXXXXXXXXXXXXXXXXXXXXXXXXXXXXXXXXXXXXXXXXXXXXXXXXXXXXXXXXXXXXXXXXXXXXXXXXXXXXXXXXXXXXXXXXXXXXXXX
XXXXXXXXXXXXXXXXXXXXXXXXXXXXXXXXXXXXXXXXXXXXXXXXXXXXXXXXXXXXXXXXXXXXXXXXXXXXXXXXXXXXXXXXXXXXXXXX
XXXXXXXXXXXXXXXXXXXXXXXXXXXXXXXXXXXXXXXXXXXXXXXXXXXXXXXXXXXXXXXXXXXXXXXXXXXXXXXXXXXXXXXXXXXXXXXX
XXXXXXXXXXXXXXXXXXXXXXXXXXXXRRRRRRRRRRRRRXXXXXXXXXXXXXXXXXXXXXXXXXXXXXXXXXXXXXXXXXXXXXXXXXXXXXXX
XXXXXXXXXXXXXXXXXXXXXXXXRRRRRRRRRRRRRRRRRRRRRRRRRRRRRRRRRRXXXXRRRRRRRRRRXXXXXXXXXXXXXXXXXXXXXXXX
XXXXXXXXXXXXXXXXXXXXXXRRRRRRRRRRRRRRRRRRRRRRRRRRRRRRRRRRRRRRRRRRRRRRRRRRXXXXXXXXXXXXXXXXXXXXXXXX
XXXXXXXXXXXXXXXXXXXXXRRRRRRRRRRRRRRRRRRRRRRRRRRRRRRRRRRRRRRRRRRRRRRRRRRRXXXXXXXXXXXXXXXXXXXXXXXX
XXXXXXXXXXXXXXXXXXXRRRRRRRRRRRRRRRRRRRRRRRRRRRRRRRRRRRRRRRRRRRRRRRRRRRRRXXXXXXXXXXXXXXXXXXXXXXXX
XXXXXXXXXXXXXXXXXXXRRRRRRRRRRRRRXXXXRRRRRRRRRRRRRRRRRRRRRRRRRRRRRRRRRRRRXXXXXXXXXXXXXXXXXXXXXXXX
XXXXXXXXXXXXXXXXXXXRRRRRRRRRRXXXXXXXXXXXXXXXXXXXXXXXXRRRRRRRRRRRRRXXXXXXXXXXXXXXXXXXXXXXXXXXXXXX
XXXXXXXXXXXXXXXXXXXRRRRRRRRRRRXXXXXXXXXXXXXXXXXXXXXXXXXXXXXXXXXXXXXXXXXXXXXXXXXXXXXXXXXXXXXXXXXX
XXXXXXXXXXXXXXXXXXXRRRRRRRRRRRRRRRXXXXXXXXXXXXXXXXXXXXXXXXXXXXXXXXXXXXXXXXXXXXXXXXXXXXXXXXXXXXXX
XXXXXXXXXXXXXXXXXXXRRRRRRRRRRRRRRRRXXXXXXXXXXXXXXXXXXXXXXXXXXXXXXXXXXXXXXXXXXXXXXXXXXXXXXXXXXXXX
XXXXXXXXXXXXXXXXXXXRRRRRRRRRRRRRRRRRRRXXXXXXRRRRRRRRRRRRRRRRRXXXXXXXXXXXXXXXXXXXXXXXXXXXXXXXXXXX
XXXXXXXXXXXXXXXXXXXRRRRRRRRRRRRRRRRRRRRRRRRRRRRRRRRRRRRRRRRRRRXXXXXXXXXXXXXXXXXXXXXXXXXXXXXXXXXX
XXXXXXXXXXXXXXXXXXXXXXXXXXRRRRRRRRRRRRRRRRRRRRRRRRRRRRRRRRRRRRRXXXXXXXXXRRRRRRRRRRXXXXXXXXXXXXXX
XXXXXXXXXXXXXXXXXXXXXXXXXXXXXRRRRRRRRRRRRRRRRRRRRRRRRRRRRRRRRRRRRRXXXRRRRRRRRRRRRRRRXXXXXXXXXXXX
XXXXXXXXXXXXXXXXXXXXXXXXXXXXXXXRRRRRRRRRRRRRRRRRRRRRRRRRRRRRRRRRRRRRRRRRRRRRRRRRRRRRXXXXXXXXXXXX
XXXXXXXXXXXXXXXXXXXXXXXXXXXXXXXXXRRRRRRRRRRRRRRRRXXXXXXXRRRRRRRRRRRRRRRRRRRRRRRRRRRRRXXXXXXXXXXX
XXXXXXXXXXXXXXXXXXXXXXXXXXXXXXXXXXXXXXXXXXXXXXXXXXXXXXXXXRRRRRRRRRRRRRRRRRRRRRRRRRRRRXXXXXXXXXXX
XXXXXXXXXXXXXXXXXXXXXXXXXRRRRRRRRXXXXXXXXXXXXXXXXXXXXXXXXXRRRRRRRRRRRRRRRRRRRRRRRRRRRXXXXXXXXXXX
XXXXXXXXXXXXXXXXXXXXXXRRRRRRRRRRRRRXXXXXXXXXXXXXXXXXXXXXXXXXXXRRRRRRRRRRRRXXXRRRRRRRRXXXXXXXXXXX
XXXXXXXXXXXXXXXXXXXXXRRRRRRRRRRRRRRRRRXXXXXXXXXXXXXXXXXXXXXXXXXXXXXXXXXXXXXXXRRRRRRRRXXXXXXXXXXX
XXXXXXXXXXXXXXXXXXRRRRRRRRRRRRRRRRRRRRRRRRRRXXXXXXXXXXXXXXXXXXXXXXXXXXXXXXXXXXXXXXRRRXXXXXXXXXXX
XXXXXXXXXXXXXXXRRRRRRRRRRRRRRRRRRRRRRRRRRRRRRXXXXXXXXXXXXXXXXXXXXXXXXXXXXRRRRXXXXXRRRXXXXXXXXXXX
XXXXXXXXXRRRRRRRRRRRRRRRRRRRRRRRRRRRRRRRRRRRRRRRRRRRRRRRRRRRRRRRRRRRRRRRRRRRRRRRRRRRRXXXXXXXXXXX
XRRRRRRRRRRRRRRRRRRRRRRRRRXXXXXRRRRRRRRRRRRRRRRRRRRRRRRRRRRRRRRRRRRRRRRRRRRRRRRRRRRRRXXXXXXXXXXX
XRRRRRRRRRRRRRRRRRRRRRRRXXXXXXXXXRRRRRRRRRRRRRRRRRRRRRRRRRRRRRRRRRRRRRRRRRRRRRRRRRRRXXXXXXXXXXXX
XRRRRRRRRRRRRRRRRRRRRXXXXXXXXXXXXXXXXXXRRRRRRRRRRRRRRRRRRRRRRRRRRRRRRRRRRRRRRRRRRXXXXXXXXXXXXXXX
XRRRRRRRRRRRRRRRRRRXXXXXXXXXXXXXXXXXXXXXXRRRRRRRRRRRRRRRRRRRRRRRRRRRRRRRRRRRRXXXXXXXXXXXXXXXXXXX
XRRRRRRRRRRRRXXXXXXXXXXXXXXXXXXXXXXXXXXXXXXXXXXXXXXXXXXXXXXXXRRRRRRRXXXXXXXXXXXXXXXXXXXXXXXXXXXX
XXXXXXXXXXXXXXXXXXXXXXXXXXXXXXXXXXXXXXXXXXXXXXXXXXXXXXXXXXXXXXXXXXXXXXXXXXXXXXXXXXXXXXXXXXXXXXXX
